!!!!SEGMENT: pl-kk--kk-i-160_anonim--gaudeamus-omnes-in-domino.krn
!!!cenid: 17xx:2600
!!!COM: Anonim
!!!COM-rismID: pe30004985
!!!CDT:
!!!CNT:
!!!OTL: Gaudeamus omnes in Domino
!!!PDT:
!!!AGN: Sacred
!!!YEC: Copyright 2022 Narodowy Instytut Fryderyka Chopina (https://polishscores.org)
!!!YEM: License CC-BY-4.0 (https://creativecommons.org/licenses/by/4.0)
!!!SMS-siglum: PL-Kk
!!!SMS-shelfmark: Kk.I.160
!!!SMS-variant:
!!!SMS-altvar:
!!!SMS-shelfwork: W
!!!NIFC-rismSourceID: 1001151000
!!!NIFC-rismChildID: 1001151000
!!!NIFC-islandoraID: pl-kk:3750
!!!URL-pdf-islandora: https://repozytorium.nifc.pl/islandora/object/pl-kk:3750/datastream/PDF/view
!!!URL-scan: https://polish.musicsources.pl/pl/lokalizacje/galeria/rekopisy/5788/11 @EN{Scan on Polish Music Sources Website} @PL{Skany w portalu Dziedzictwo Muzyki Polskiej w otwartym dostępie}
!!!IIIF:
!!!ONB-nifc:
!!!AIN: 1 alto 1 bass 1 soprn 1 tenor
!!!key: C
**kern	**text	**kern	**text	**text	**kern	**text	**text	**kern	**text	**text	**kern	**text	**text
*part5	*part5	*part4	*part4	*part4	*part3	*part3	*part3	*part2	*part2	*part2	*part1	*part1	*part1
*staff5	*staff5	*staff4	*staff4	*staff4	*staff3	*staff3	*staff3	*staff2	*staff2	*staff2	*staff1	*staff1	*staff1
*IGripn	*	*	*	*	*	*	*	*	*	*	*	*	*
*	*	*ICvox	*	*	*ICvox	*	*	*ICvox	*	*	*ICvox	*	*
*	*	*Ibass	*	*	*Itenor	*	*	*Ialto	*	*	*Isoprn	*	*
*I"Baſsô eripieno	*	*I"Baſsô	*	*	*I"Tenore	*	*	*I"Altô	*	*	*I"Canto	*	*
*I'B rip	*	*I'B	*	*	*I'T	*	*	*I'A	*	*	*I'S	*	*
*clefF4	*	*clefF4	*	*	*clefC4	*	*	*clefC3	*	*	*clefC1	*	*
*k[]	*	*k[]	*	*	*k[]	*	*	*k[]	*	*	*k[]	*	*
*C:	*	*C:	*	*	*C:	*	*	*C:	*	*	*C:	*	*
*M2/2	*	*M2/2	*	*	*M2/2	*	*	*M2/2	*	*	*M2/2	*	*
*met(c|)	*	*met(c|)	*	*	*met(c|)	*	*	*met(c|)	*	*	*met(c|)	*	*
=1	=1	=1	=1	=1	=1	=1	=1	=1	=1	=1	=1	=1	=1
*2\right	*	*2\right	*	*	*2\right	*	*	*2\right	*	*	*2\right	*	*
!LO:TX:a:t=âlla&colon;capella:mod=	!	!LO:TX:a:t=allô Capella:mod=	!	!	!LO:TX:a:t=allâ Capella:mod=	!	!	!LO:TX:a:t=allô Capella:mod=	!	!	!LO:TX:a:t=allo Capella:mod=	!	!
2.C/	Gau-	2.C/	Gau-	Os	2.c\	Gau-	Os	2.g\	Gau-	Os	2.ee\	Gau-	Os
4C/	-de-	4C/	-de-	.	4c\	-de-	.	4g\	-de-	.	4ee\	-de-	.
=2	=2	=2	=2	=2	=2	=2	=2	=2	=2	=2	=2	=2	=2
2C/	-a-	2C/	-a-	jus-	2c\	-a-	jus-	2g\	-a-	Jus-	2ee\	-a-	jus-
2C/	-mus	2C/	-mus	-ti	2c\	-mus	-ti	2g\	-mus	-ti	2ee\	-mus	-ti
=3	=3	=3	=3	=3	=3	=3	=3	=3	=3	=3	=3	=3	=3
2G\	om-	2G\	om-	os	2B\	om-	os	2g\	om-	me-	2dd\	om-	me-
4G\	-nes	4G\	-nes	jus-	4B\	-nes	jus-	4g\	-nes	-di-	4dd\	-nes	-di-
4G\	in	4G\	in	-ti	4B\	in	-ti	4g\	in	.	4dd\	in	.
=4	=4	=4	=4	=4	=4	=4	=4	=4	=4	=4	=4	=4	=4
*	*	*	*	*	*	*	*ij	*	*	*	*	*	*
2GG/	do-	2GG/	do-	me-	2B\	do-	os	2g\	do-	-ta-	2dd\	do-	-ta-
4GG/	-mi-	4GG/	-mi-	-di-	4B\	-mi-	jus-	4g\	-mi-	-bi-	4dd\	-mi-	-bi-
4GG/	-no	4GG/	-no	-ta-	4B\	-no	-ti	4g\	-no	-tur	4dd\	-no	-tur
*	*	*	*	*	*	*	*Xij	*	*	*	*	*	*
=5	=5	=5	=5	=5	=5	=5	=5	=5	=5	=5	=5	=5	=5
4C/	di-	4C/	Di-	.	4G/	di-	me-	4e\	di-	Sa-	4cc\	di-	Sa-
4E/	-em	4E/	-em	.	4G/	-em	-di-	4e\	-em	-pi-	4cc\	-em	-pi-
4G/	fes-	4G/	fes-	.	4G/	fes-	-ta-	4e\	fes-	-en-	4cc\	fes-	-en-
4E/	-tum	4E/	-tum	.	4G/	-tum	-bi-	4e\	-tum	-tiam	4cc\	-tum	-tiam
!	!	!LO:LB:g=original	!	!	!	!	!	!	!	!	!	!	!
=6	=6	=6	=6	=6	=6	=6	=6	=6	=6	=6	=6	=6	=6
(4C/	Cae-	(4C/	Ce-	.	2G/	cae-	-tur	2e\	cae-	et	2cc\	cae-	et
4GG/)	.	4GG/)	.	.	.	.	.	.	.	.	.	.	.
4BB/	-le-	(4BB/	-le-	.	2G/	-le-	Sa-	2f\	-le-	lin-	2dd\	-le-	lin-
4GG/	.	4GG/)	.	.	.	.	.	.	.	.	.	.	.
!LO:LB:g=original	!	!	!	!	!	!	!	!	!	!	!	!	!
=7	=7	=7	=7	=7	=7	=7	=7	=7	=7	=7	=7	=7	=7
4C/	-bran-	4C/	-bran-	.	1c	-bran-	-pi-	1g	-bran-	-gva	1ee	-bran-	-gva
4D/	.	4D/	.	.	.	.	.	.	.	.	.	.	.
4E/	.	4E/	.	-bi-	.	.	.	.	.	.	.	.	.
4C/	.	4C/	.	-tur	.	.	.	.	.	.	.	.	.
!	!	!	!	!	!LO:LB:g=original	!	!	!LO:LB:g=original	!	!	!LO:LB:g=original	!	!
=8	=8	=8	=8	=8	=8	=8	=8	=8	=8	=8	=8	=8	=8
2G\	-tes	2G\	-teš	Sa-	2B\	-tes	-en-	2g\	-tes	e-	2dd\	-tes	e-
4BB/	sub	4BB/	sub	-pi-	4G/	sub	-ti-	4f\	sub	-jus	4dd\	sub	-jus
4C/	Ho-	4C/	Ho-	-en-	4G/	ho-	-am	4e\	Ho-	et	4cc\	Ho-	.
=9	=9	=9	=9	=9	=9	=9	=9	=9	=9	=9	=9	=9	=9
2GG/	-no-	2GG/	-no-	-ti-	2F/	-no-	me-	2d\	-no-	lin-	2b\	-no-	lo-
4C/	-re	4C/	-re	-am	4G/	-re	-di-	4e\	-re	-gva	4cc\	-re	-que-
4C/	be-	4C/	be-	.	4G/	be-	-ta-	4e\	be-	.	4cc\	be-	-tur
=10	=10	=10	=10	=10	=10	=10	=10	=10	=10	=10	=10	=10	=10
*	*	*	*	*	*	*	*	*	*	*	*	*	*ij
4D/	-a-	4D/	-a-	et	2G/	-a-	-bi-	2f\	-a-	et	2dd\	-a-	lo-
4C/	.	4C/	.	.	.	.	.	.	.	.	.	.	.
4BB/	-tae	4BB/	-tae	.	4G/	-tae	-tur	4d\	-tae	lin-	4b\	-tae	-que-
4GG/	Ma-	4GG/	Ma-	.	4G/	Ma-	Sa-	4d\	Ma-	-gva	4b\	Ma-	-tur
*	*	*	*	*	*	*	*	*	*	*	*	*	*Xij
!	!	!LO:LB:g=original	!	!	!	!	!	!	!	!	!	!	!
=11	=11	=11	=11	=11	=11	=11	=11	=11	=11	=11	=11	=11	=11
2C/	-ri-	2C/	-ri-	lin-	2G/	-ri-	-pi-	2e\	-ri-	e-	2cc\	-ri-	ju-
(4E/	-ae	(4E/	-ae	-gua	2G/	-ae	-en-	2e\	-ae	-jus	2b-X\	-ae	-di-
4C/)	.	4C/)	.	.	.	.	.	.	.	.	.	.	.
=12	=12	=12	=12	=12	=12	=12	=12	=12	=12	=12	=12	=12	=12
4F\	Vir-	4F\	vir-	e-	4A\	Vir-	.	4f\	Vir-	lo-	4a\	Vir-	.
4G\	-gi-	4G\	-gi-	.	4B-X\	-gi-	.	4f\	-gi-	-que-	4a\	-gi-	.
4A\	-nis	4A\	-nis	.	4c\	-nis	.	4f\	-nis	-tur	4a\	-nis	-ci-
4F\	de	4F\	de	-jus	4A\	de	-ti-	4f\	de	Sa-	4a\	de	-um
=13	=13	=13	=13	=13	=13	=13	=13	=13	=13	=13	=13	=13	=13
4C/	cuj-	(4C/	cuj-	e-	2G/	cu-	-am	2e\	cu-	-pi-	2b-X\	Cu-	lex
4D/	.	4D/)	.	.	.	.	.	.	.	.	.	.	.
*	*	*	*	*	*	*	*ij	*	*	*	*	*	*
4E/	-us	4E/	-us	-jus	4G/	-jus	Sa-	4e\	-jus	-en-	4b-\	-jus	De-
4C/	aſ-	4C/	aſ-	.	4G/	aſ-	-pi-	4e\	aſ-	-tiam	4b-\	aſ-	-i
!LO:LB:g=original	!	!	!	!	!	!	!	!	!	!	!	!	!
=14	=14	=14	=14	=14	=14	=14	=14	=14	=14	=14	=14	=14	=14
4F\	-sum-	4F\	-sum-	lo-	4A\	-sum-	-en-	4f\	-sum-	et	4cc\	-sum-	e-
4A\	-ti-	4A\	-ti-	-que-	4A\	-ti-	-ti-	4f\	-ti-	lin-	4cc\	-ti-	-jus
4c\	-o-	4c\	-o-	.	2G\	-o-	-am	2e\	-o-	-gva	2cc\	-o-	lex
*	*	*	*	*	*	*	*Xij	*	*	*	*	*	*
4C/	.	4C/	.	.	.	.	.	.	.	.	.	.	.
!	!	!	!	!	!LO:LB:g=original	!	!	!LO:LB:g=original	!	!	!LO:LB:g=original	!	!
=15	=15	=15	=15	=15	=15	=15	=15	=15	=15	=15	=15	=15	=15
*	*	*	*	*	*	*	*	*	*	*ij	*	*	*
2F\	-ne	2F\	-ne	-tur	2A\	-ne	et	2f\	-ne	et	2cc\	-ne	lex
4F#X\	gau-	4F#X\	gau-	lo-	4A\	gau-	lin-	4d\	gau-	lin-	4a\	gau-	e-
4D\	-dent	4D\	-dent	.	4F#X/	-dent	-gva	4d\	-dent	-gva	4a\	-dent	-jus
*	*	*	*	*	*	*	*	*	*	*Xij	*	*	*
!	!	!LO:LB:g=original	!	!	!	!	!	!	!	!	!	!	!
=16	=16	=16	=16	=16	=16	=16	=16	=16	=16	=16	=16	=16	=16
4G\	an-	4G\	An-	-que-	4B\	an-	e-	1d	an-	e-	1bn	an-	in
4A\	.	4A\	.	.	4c\	.	.	.	.	.	.	.	.
4B\	.	4B\	.	.	4d\	.	.	.	.	.	.	.	.
4G\	.	4G\	.	.	4B\	.	-jus	.	.	.	.	.	.
=17	=17	=17	=17	=17	=17	=17	=17	=17	=17	=17	=17	=17	=17
4D\	.	4D\	.	.	4F#X/	.	lo-	1d	.	-jus	2a/	.	cor-
4E\	.	4E\	.	.	4G/	.	.	.	.	.	.	.	.
4F#X\	.	4F#X\	.	-tur	4A/	.	-que-	.	.	.	4cc\	.	-de
4D\	.	4D\	.	.	4F#/	.	.	.	.	.	4a\	.	.
=18	=18	=18	=18	=18	=18	=18	=18	=18	=18	=18	=18	=18	=18
4G\	.	4G\	.	sa-	2B\	.	-tur	2.d\	.	lo-	2dd\	.	in
4B\	.	4B\	.	-pi-	.	.	.	.	.	.	.	.	.
4d\	.	4d\	.	-en-	2A\	-ge-	Sa-	.	.	.	2cc\	-ge-	cor-
4D/	-ge-	4D/	-ge-	-ti-	.	.	.	4d\	-ge-	-que-	.	.	.
=19	=19	=19	=19	=19	=19	=19	=19	=19	=19	=19	=19	=19	=19
2G\	-li	2G\	-li	-am	2B\	-li	-pi-	2d\	-li	-tur	2b\	-li	de
4B\	et	4B\	et	et	4G/	et	-en-	4fn\	et	Sa-	4dd\	et	cor-
4G\	col-	4G\	col-	.	4B/	col-	.	4f\	col-	-pi-	4dd\	col-	-de
!LO:LB:g=original	!	!	!	!	!	!	!	!	!	!	!	!	!
=20	=20	=20	=20	=20	=20	=20	=20	=20	=20	=20	=20	=20	=20
2c\	-lau-	2c\	-lau-	lin-	2G/	-lau-	.	2e\	-lau-	-en-	2cc\	-lau-	ip-
4C/	-dant	4C/	-dant	-gva	4G/	-dant	-ti-	4e\	-dant	.	4cc\	-dant	-su-
4E/	Fi-	4E/	fi-	.	4G/	Fi-	-am	4g\	Fi-	.	4cc\	Fi-	-is
!	!	!LO:LB:g=original	!	!	!	!	!	!	!	!	!	!	!
=21	=21	=21	=21	=21	=21	=21	=21	=21	=21	=21	=21	=21	=21
*	*	*	*	*	*	*	*ij	*	*	*	*	*	*ij
4F\	-li-	4F\	-li-	e-	4G/	-li-	Sa-	4d\	-li-	.	4b\	-li-	ip-
4D\	-um	4D\	-um	.	4G/	-um	-pi-	4f\	-um	.	4cc\	-um	-su-
4G\	De-	4G\	De-	.	2G/	De-	-en-	4e\	De-	.	4cc\	De-	.
*	*	*	*	*	*	*	*Xij	*	*	*	*	*	*
4GG/	.	4GG/	.	.	.	.	.	4d\	.	.	4b\	.	.
!	!	!	!	!	!LO:LB:g=original	!	!	!	!	!	!	!	!
=22	=22	=22	=22	=22	=22	=22	=22	=22	=22	=22	=22	=22	=22
2C/	-i	2C/	-i	-jus	2G/	-i	-ti-	2e\	-i	.	2cc\	-i	-is
*	*	*	*	*	*	*	*	*	*	*	*	*	*Xij
4E\	et	4E\	et	lo-	4G/	et	-am	4c\	et	-ti-	2r	.	.
4E\	col-	4E\	col-	-que-	4G/	col-	.	4c\	col-	-am	.	.	.
!	!	!	!	!	!	!	!	!LO:LB:g=original	!	!	!LO:LB:g=original	!	!
=23	=23	=23	=23	=23	=23	=23	=23	=23	=23	=23	=23	=23	=23
2F\	-lau-	2F\	-lau-	-tur	2B\	-lau-	Sa-	2d\	-lau-	lo-	0r	.	.
2G\	-dant	2G\	-dant	lo-	2c\	-dant	-pi-	2e\	-dant	-que-	.	.	.
=24	=24	=24	=24	=24	=24	=24	=24	=24	=24	=24	=24	=24	=24
2A\	Fi-	2A\	Fi-	-que-	2c\	Fi-	-en-	2f\	Fi-	-tur	.	.	.
2B\	-li-	2B\	-li-	.	2G\	-li-	.	2d\	-li-	lo-	.	.	.
=25	=25	=25	=25	=25	=25	=25	=25	=25	=25	=25	=25	=25	=25
2c\	-um	2c\	-um	-tur	2c\	-um	.	2e\	-um	-que-	2r	.	.
2E\	Fi-	2E\	fi-	Sa-	2G/	Fi-	.	4g\	Fi-	-tur	2cc\	Fi-	et
.	.	.	.	.	.	.	.	4g\	-li-	.	.	.	.
=26	=26	=26	=26	=26	=26	=26	=26	=26	=26	=26	=26	=26	=26
*	*	*	*	*	*	*	*	*	*	*ij	*	*	*
4F\	-li-	4F\	-li-	.	4G/	-li-	.	2f\	-um	lo-	4cc\	-li-	n(on)
4D\	-um	4D\	-um	-pi-	4G/	-um	.	.	.	.	4cc\	-um	sub-
!	!	!LO:LB:g=original	!	!	!	!	!	!	!	!	!	!	!
4G\	De-	4G\	De-	.	2G/	De-	.	2d\	De-	-que-	2b\	De-	-plan-
4GG/	.	4GG/	.	.	.	.	.	.	.	.	.	.	.
!LO:LB:g=original	!	!	!	!	!	!	!	!	!	!	!	!	!
=27	=27	=27	=27	=27	=27	=27	=27	=27	=27	=27	=27	=27	=27
2C/	-i	2C/	-i	-en-	2G/	-i	.	2e\	-i	-tur	2cc\	-i	-ta-
*	*	*	*	*	*	*	*	*	*	*Xij	*	*	*
4A\	et	4A\	et	.	4A/	et	.	4f\	et	Sa-	4cc\	et	-bun-
4A\	col-	4A\	col-	.	4A/	col-	.	4f\	col-	-pi-	4cc\	col-	-tur
=28	=28	=28	=28	=28	=28	=28	=28	=28	=28	=28	=28	=28	=28
2F\	-lau-	2F\	-lau-	.	2G/	-lau-	.	2d\	-lau-	-en-	2cc\	-lau-	gres-
2G\	-dant	2G\	-dant	.	2G/	-dant	.	2f\	-dant	.	2b\	-dant	-ſ(us)
=29	=29	=29	=29	=29	=29	=29	=29	=29	=29	=29	=29	=29	=29
2C/	Fi-	2C/	Fi-	.	2G/	Fi-	.	2e\	Fi-	.	2cc\	Fi-	gres-
4C/	-li-	4C/	-li-	.	4G/	-li-	.	4e\	-li-	.	4cc\	-li-	-ſ(us)
4C/	-um	4C/	-um	.	4G/	-um	.	4e\	-um	.	4cc\	-um	e-
=30	=30	=30	=30	=30	=30	=30	=30	=30	=30	=30	=30	=30	=30
1F	De-	[1F	De-	.	0A	De-	-ti-	0f	De-	-ti-	[<1cc	De-	.
=31	=31	=31	=31	=31	=31-	=31	=31	=31-	=31	=31	=31	=31	=31
1F	.	1F]	.	-ti-	.	.	.	.	.	.	1cc]	.	.
=32	=32	=32	=32	=32	=32	=32	=32	=32	=32	=32	=32	=32	=32
1C	-i	1C;	-i	-am	1G	-i	-am	1e	-i	-am	1cc	-i	-jus
!	!	!	!	!	!	!	!	!LO:TX:a:rj:t=32:mod=	!	!	!	!	!
!LO:LB:g=original	!	!LO:LB:g=original	!	!	!LO:LB:g=original	!	!	!LO:LB:g=original	!	!	!LO:LB:g=original	!	!
==33	==33	==33	==33	==33	==33	==33	==33	==33	==33	==33	==33	==33	==33
*M2/2	*	*M2/2	*	*	*M2/2	*	*	*M2/2	*	*	*M2/2	*	*
*met(c|)	*	*met(c|)	*	*	*met(c|)	*	*	*met(c|)	*	*	*met(c|)	*	*
2C/	E-	2C/	E-	no-	2r	.	.	00r	.	.	2r	.	.
2c\	-ruc-	2c\	-ruc-	-li	4G/	E-	no-	.	.	.	4cc\	E-	no-
.	.	.	.	.	4G/	-ruc-	-li	.	.	.	4cc\	-ruc-	-li
=34	=34	=34	=34	=34	=34	=34	=34	=34	=34	=34	=34	=34	=34
2c\	-ta-	2c\	-ta-	e-	2G/	-ta-	e-	.	.	.	2dd\	-ta-	e-
2B\	-vit	2B\	-vit	-mu-	2G/	-vit	-mu-	.	.	.	2dd\	-vit	-mu-
=35	=35	=35	=35	=35	=35	=35	=35	=35	=35	=35	=35	=35	=35
4c\	Cor	4c\	cor	-la-	1G	cor	-la-	.	.	.	1ee	Cor	-la-
4G\	.	4G\	.	.	.	.	.	.	.	.	.	.	.
4E\	.	4E\	.	.	.	.	.	.	.	.	.	.	.
4G\	.	4G\	.	.	.	.	.	.	.	.	.	.	.
=36	=36	=36	=36	=36	=36	=36	=36	=36	=36	=36	=36	=36	=36
4C/	me-	4C/	me-	.	1G	me-	-ri	.	.	.	4ee\	me-	.
4E/	.	4E/	.	.	.	.	.	.	.	.	4gg\	.	.
4D/	.	4D/	.	.	.	.	.	.	.	.	4ff\	.	.
4C/	.	4C/	.	.	.	.	.	.	.	.	4ee\	.	.
=37	=37	=37	=37	=37	=37	=37	=37	=37	=37	=37	=37	=37	=37
2G\	-um	2G\	-um	-ri	2B\	-um	in	2r	.	.	2dd\	-um	-ri
[<2G\	E-	1G\	E-	in	2B\	E-	ma-	2g\	E-	no-	(2dd\	E-	in
=38	=38	=38-	=38	=38	=38	=38	=38	=38	=38	=38	=38	=38	=38
2G\]	.	.	.	.	2d\	.	-li-	2a\	.	-li	2cc\)	.	ma-
2F#X\	-ruc-	2F#X\	-ruc-	ma-	(2d\	-ruc-	-gnan-	2a\	-ruc-	e-	2cc\	-nuc-	-li-
!	!	!LO:LB:g=original	!	!	!	!	!	!	!	!	!	!	!
=39	=39	=39	=39	=39	=39	=39	=39	=39	=39	=39	=39	=39	=39
4G\	-ta-	4G\	-ta-	-li-	2B\)	-ta-	.	2g\	-ta-	-mu-	2dd\	-ta-	-gnan-
4D\	-vit	4D\	-vit	.	.	.	.	.	.	.	.	.	.
4BB/	cor	(4BB/	cor	.	4B\	-vit	-ti-	4g\	-vit	-la-	4dd\	-vit	-ti-
4D/	.	4D/)	.	.	4B\	cor	-bus	4g\	cor	-ri	4dd\	cor	-bus
!	!	!	!	!	!	!	!	!	!	!	!LO:LB:g=original	!	!
=40	=40	=40	=40	=40	=40	=40	=40	=40	=40	=40	=40	=40	=40
4GG/	me-	4GG/	me-	.	2B\	me-	ne-	1g	me-	in	2dd\	me-	ma-
8G\L	.	8G\L	.	.	.	.	.	.	.	.	.	.	.
8Fn\J	.	8Fn\J	.	.	.	.	.	.	.	.	.	.	.
4E/	.	4E/	.	-gnan-	2c\	.	-que	.	.	.	2ee\	.	-li-
4C/	.	4C/	.	-ti-	.	.	.	.	.	.	.	.	.
!LO:LB:g=original	!	!	!	!	!LO:LB:g=original	!	!	!	!	!	!	!	!
=41	=41	=41	=41	=41	=41	=41	=41	=41	=41	=41	=41	=41	=41
2GG/	-um	2GG/	-um	-bus	2B\	-um	n[e]-	2g\	-um	ma-	2dd\	-um	-gnan-
2r	.	2r	.	.	4B\	ver-	-que	4g\	ver-	-li-	4dd\	ver-	-ti-
.	.	.	.	.	4B\	-bum	ze-	4g\	-bum	-gnan-	4dd\	-bum	-bus
=42	=42	=42	=42	=42	=42	=42	=42	=42	=42	=42	=42	=42	=42
0r	.	0r	.	.	2c\	bo-	-la-	2g\	bo-	-ti-	2ee\	bo-	ne-
.	.	.	.	.	2d\	-num	.	2g\	-num	-bus	2ff\	-num	-que
=43	=43	=43	=43	=43	=43	=43	=43	=43	=43	=43	=43	=43	=43
*	*	*	*	*	*	*	*	*	*	*	*	*	*ij
.	.	.	.	.	4c\	ver-	.	2g\	ver-	ne-	4ee\	ver-	ne-
.	.	.	.	.	8B\L	.	.	.	.	.	8dd\L	.	.
.	.	.	.	.	8c\J	.	.	.	.	.	8ee\J	.	.
.	.	.	.	.	2c\	-bum	.	2g\	-bum	-que	2ee\	-bum	-que
!	!	!	!	!	!	!	!	!LO:LB:g=original	!	!	!	!	!
=44	=44	=44	=44	=44	=44	=44	=44	=44	=44	=44	=44	=44	=44
1r	.	1r	.	.	4c\	bo-	-ve-	[2g\	bo-	ze-	4ee\	bo-	ne-
.	.	.	.	.	8B\L	.	-ris	.	.	.	8dd\L	.	.
.	.	.	.	.	8c\J	.	.	.	.	.	8ee\J	.	.
.	.	.	.	.	2c\	-[[nu]]-	.	2g\]	.	.	2ee\	.	-que
*	*	*	*	*	*	*	*	*	*	*	*	*	*Xij
=45	=45	=45	=45	=45	=45	=45	=45	=45	=45	=45	=45	=45	=45
2r	.	2r	.	.	2B\	-num	i-	[2g\	-num	-la-	2dd\	-num	ze-
2G\	ver-	2G\	ver-	in	2B\	ver-	-ni-	2g\]	ver-	.	2dd\	ver-	-la
!	!	!LO:PB:g=original	!	!	!	!	!	!	!	!	!	!	!
=46	=46	=46	=46	=46	=46	=46	=46	=46	=46	=46	=46	=46	=46
4A\	-bum	4A\	-bum	ma-	2c\	-bum	-qui-	2f\	-bum	-ve-	2ff\	-bum	ze-
4F\	.	4F\	.	.	.	.	.	.	.	.	.	.	.
4D\	bo-	4D\	bo-	.	2B\	bo-	-ta-	2d\	bo-	-ris	2ff\	bo-	-la-
4G\	.	4G\	.	.	.	.	.	.	.	.	.	.	.
!	!	!	!	!	!	!	!	!	!	!	!LO:LB:g=original	!	!
=47	=47	=47	=47	=47	=47	=47	=47	=47	=47	=47	=47	=47	=47
2C/	-num	2C/	-num	-li-	2G/	-num	-tem	2c\	-num	i-	2ee\	-num	.
4AA/	di-	4AA/	di-	-gnan-	2r	.	.	4e\	di-	-ni-	4cc\	di-	-ve-
4AA/	-co	4AA/	-co	-ti-	.	.	.	4e\	-co	-qui-	4cc\	-co	-ris
=48	=48	=48	=48	=48	=48	=48	=48	=48	=48	=48	=48	=48	=48
!	!	!	!	!	!LO:TX:a:t=5:mod=	!	!	!	!	!	!	!	!
2GG#X/	e-	2GG#X/	e-	-bus	00r	.	.	2e\	e-	-ta-	2b\	e-	i-
2AA/	-go	2AA/	-go	in	.	.	.	2e\	-go	.	2cc\	-go	-ni-
=49	=49	=49	=49	=49	=49	=49	=49	=49	=49	=49	=49	=49	=49
!LO:SIC:v:s=4GG#/	!	!LO:SIC:v:s=4GG#/	!	!	!	!	!	!	!	!	!	!	!
4GG/	o-	4GG/	o-	ma-	.	.	.	4e\	o-	.	4b\	o-	-qui-
!LO:SIC:v:s=4GG#/	!	!LO:SIC:v:s=4GG#/	!	!	!	!	!	!	!	!	!	!	!
4GG/	-pe-	4GG/	-pe-	-li-	.	.	.	4e\	-pe-	.	4b\	-pe-	-ta-
2AA/	-ra	2AA/	-ra	-gnan-	.	.	.	2e\	-ra	.	2cc\	-ra	-tem
=50	=50	=50	=50	=50	=50	=50	=50	=50	=50	=50	=50	=50	=50
2E\	me-	2E\	me-	-ti-	.	.	.	2e\	me-	.	2b\	me-	ze-
2E\	-a	2E\	-a	-bus	.	.	.	2e\	-a	.	2b\	-a	-la-
=51	=51	=51	=51	=51	=51	=51	=51	=51	=51	=51	=51	=51	=51
2A\	me-	2A\	me-	ne-	.	.	.	4e\	me-	.	(4cc\	me-	-ve-
.	.	.	.	.	.	.	.	4d\	.	.	4b\)	.	.
2F\	-a	2F\	-a	-que	.	.	.	2c\	-a	.	2a\	-a	-ris
!LO:LB:g=original	!	!LO:LB:g=original	!	!	!	!	!	!LO:LB:g=original	!	!	!	!	!
=52	=52	=52	=52	=52	=52	=52	=52	=52	=52	=52	=52	=52	=52
2D\	Re-	2D\	Re-	ze-	1r	.	.	1B	Re-	-tem	2a\	Re-	i-
2E\	.	2E\	.	-la-	.	.	.	.	.	.	2g#X\	.	-ni-
!	!	!	!	!	!LO:LB:g=original	!	!	!	!	!	!	!	!
=53	=53	=53	=53	=53	=53	=53	=53	=53	=53	=53	=53	=53	=53
2AA/	-gi	2AA/	-gi	-ve-	2r	.	.	2c#X\	-gi	ne-	2a\	-gi	-qui-
4C/	di-	4C/	di-	-ris	4c\	di-	ne-	4e\	di-	-que	4gn/	di-	-ta-
4C/	-co	4C/	-co	ze-	4c\	-co	-que	4e\	-co	ze-	4g/	-co	.
!	!	!	!	!	!	!	!	!	!	!	!LO:LB:g=original	!	!
=54	=54	=54	=54	=54	=54	=54	=54	=54	=54	=54	=54	=54	=54
2BB/	e-	2BB/	e-	-la-	2d\	e-	ze-	2fn\	e-	-la-	2g/	e-	-tem
2C/	-go	2C/	-go	.	2c\	-go	-la-	2e\	-go	-ve-	2g/	-go	i-
=55	=55	=55	=55	=55	=55	=55	=55	=55	=55	=55	=55	=55	=55
2GG/	o-	2GG/	o-	.	2B\	o-	.	2d\	o-	-ris	2g/	o-	-ni-
4C/	-pe-	4C/	-pe-	-ve-	4c\	-pe-	.	4e\	-pe-	ze-	4g/	-pe-	-qui-
4C/	-ra	4C/	-ra	-ris	4c\	-ra	-ve-	4e\	-ra	-la-	4g/	-ra	-ta-
=56	=56	=56	=56	=56	=56	=56	=56	=56	=56	=56	=56	=56	=56
2A\	me-	2A\	me-	i-	2c\	me-	-ris	2d\	me-	-ve-	2f/	me-	-tem
2F\	-a	2F\	-a	-ni-	2A\	-a	ze-	2d\	-a	-ris	2a/	-a	in-
=57	=57	=57	=57	=57	=57	=57	=57	=57	=57	=57	=57	=57	=57
2G\	Re-	2G\	Re-	-qui-	1G	Re-	-la-	2e\	Re-	i-	2cc\	Re-	-i-
2GG/	.	2GG/	.	-ta-	.	.	.	2d\	.	-ni-	2b\	.	-qui-
!	!	!LO:LB:g=original	!	!	!	!	!	!	!	!	!	!	!
=58	=58	=58	=58	=58	=58	=58	=58	=58	=58	=58	=58	=58	=58
2C/	-gi	2C/	-gi	-tem	2G/	-gi	.	2e\	-gi	-qui-	2cc\	-gi	-ta-
4c\	o-	4c\	o-	i-	4G/	o-	.	4g\	o-	-ta-	4ee\	o-	-tem
4c\	-pe-	4c\	-pe-	-ni-	4G/	-pe-	-ve-	4g\	-pe-	-tem	4ee\	-pe-	i-
=59	=59	=59	=59	=59	=59	=59	=59	=59	=59	=59	=59	=59	=59
1A	-ra	1A	-ra	-qui-	1c	-ra	-ris	1f#X	-ra	in-	1dd	-ra	-ni-
!	!	!	!	!	!	!	!	!LO:LB:g=original	!	!	!	!	!
=60	=60	=60	=60	=60	=60	=60	=60	=60	=60	=60	=60	=60	=60
2F#X\	me-	2F#X\	me-	-ta-	2c\	me-	i-	2a\	me-	-ni-	2dd\	me-	-qui-
2F#\	-a	2F#\	-a	.	2c\	-a	-ni-	2a\	-a	-qui-	2dd\	-a	-ta-
!	!	!	!	!	!LO:LB:g=original	!	!	!	!	!	!	!	!
=61	=61	=61	=61	=61	=61	=61	=61	=61	=61	=61	=61	=61	=61
1G	Re-	1G	Re-	.	[>1G	Re-	-qui-	2b\	Re-	-ta-	2dd\	Re-	.
.	.	.	.	.	.	.	.	2cc\	.	.	2ee\	.	.
=62	=62	=62	=62	=62	=62	=62	=62	=62	=62	=62	=62	=62	=62
1GG	.	1GG	.	.	1G]	.	-ta-	2cc\	.	.	1dd	.	.
.	.	.	.	.	.	.	.	2b\	.	.	.	.	.
=63	=63	=63	=63	=63	=63	=63	=63	=63	=63	=63	=63	=63	=63
1C	-gi	1C	-gi	-tem	1G	-gi	-tem	1cc	-gi	-tem	1ee	-gi	-tem
!	!	!	!	!	!LO:TX:b:rj:t=31:mod=	!	!	!	!	!	!	!	!
!LO:PB:g=original	!	!LO:LB:g=original	!	!	!LO:PB:g=original	!	!	!LO:PB:g=original	!	!	!LO:PB:g=original	!	!
==64	==64	==64	==64	==64	==64	==64	==64	==64	==64	==64	==64	==64	==64
*M2/2	*	*M2/2	*	*	*M2/2	*	*	*M2/2	*	*	*M2/2	*	*
*met(c|)	*	*met(c|)	*	*	*met(c|)	*	*	*met(c|)	*	*	*met(c|)	*	*
!LO:TX:a:t=adagio:mod=	!	!LO:TX:a:t=adagio:mod=	!	!	!LO:TX:a:t=adagio:mod=	!	!	!LO:TX:a:t=adagio:mod=	!	!	!LO:TX:a:t=adagio:mod=	!	!
(4C/	Glo-	4C/	Glo-	.	2G/	Glo-	.	2e\	Glo-	.	2cc\	Glo-	.
4E/)	.	4E/	.	.	.	.	.	.	.	.	.	.	.
4G/	-ri-	4G\	-ri-	.	4G/	-ri-	.	4e\	-ri-	.	4cc\	-ri-	.
4c\	-a	4c\	-a	.	4G/	-a	.	4e\	-a	.	4cc\	-a	.
=65	=65	=65	=65	=65	=65	=65	=65	=65	=65	=65	=65	=65	=65
2C/	Pa-	2C/	Pa-	.	2G/	Pa-	.	2e\	Pa-	.	2cc\	Pa-	.
4C/	-tri	4C/	-tri	.	4G/	-tri	.	4e\	-tri	.	4cc\	-tri	.
4C/	et	4C/	et	.	4G/	et	.	4e\	et	.	4cc\	et	.
=66	=66	=66	=66	=66	=66	=66	=66	=66	=66	=66	=66	=66	=66
2.BB-X/	Fi-	2.BB-X/	Fi-	.	2.G/	Fi-	.	2.e\	Fi-	.	2.cc\	Fi-	.
4BB-/	-li-	4BB-/	-li-	.	4G/	-li-	.	4e\	-li-	.	4cc\	-li-	.
=67	=67	=67	=67	=67	=67	=67	=67	=67	=67	=67	=67	=67	=67
!LO:SIC:v:s=2BB-/	!	!LO:SIC:v:s=2BB-/	!	!	!	!	!	!	!	!	!	!	!
2BB/	-o	2BB/	-o	.	2G/	-o	.	2e\	-o	.	2cc\	-o	.
!LO:SIC:v:s=4BB-/	!	!LO:SIC:v:s=4BB-/	!	!	!	!	!	!	!	!	!	!	!
4BB/	et	4BB/	et	.	4G/	et	.	4e\	et	.	4cc\	et	.
!LO:SIC:v:s=4BB-/	!	!LO:SIC:v:s=4BB-/	!	!	!	!	!	!	!	!	!	!	!
4BB/	Spi-	4BB/	Spi-	.	4G/	Spi-	.	4e\	Spi-	.	4cc\	Spi-	.
=68	=68	=68	=68	=68	=68	=68	=68	=68	=68	=68	=68	=68	=68
2AA/	-ri-	2AA/	-ri-	.	2A\	-ri-	.	2f\	-ri-	.	2cc\	-ri-	.
4AA/	-tu-	4AA/	-tu-	.	4A\	-tu-	.	4f\	-tu-	.	4cc\	-tu-	.
4AA/	-i	4AA/	-i	.	4A\	-i	.	4f\	-i	.	4cc\	-i	.
!	!	!LO:LB:g=original	!	!	!	!	!	!	!	!	!	!	!
=69	=69	=69	=69	=69	=69	=69	=69	=69	=69	=69	=69	=69	=69
1BBn	Sanc-	1BBn	Sanc-	.	1G	San-	.	1f	San-	.	1dd	Sanc-	.
=70	=70	=70	=70	=70	=70	=70	=70	=70	=70	=70	=70	=70	=70
1C	-to	1C	-to	.	1c	-cto	.	1g	-cto	.	1ee	-to	.
!LO:LB:g=original	!	!LO:LB:g=original	!	!	!LO:LB:g=original	!	!	!LO:LB:g=original	!	!	!LO:LB:g=original	!	!
==71	==71	==71	==71	==71	==71	==71	==71	==71	==71	==71	==71	==71	==71
*M2/2	*	*M2/2	*	*	*M2/2	*	*	*M2/2	*	*	*M2/2	*	*
*met(c|)	*	*met(c|)	*	*	*met(c|)	*	*	*met(c|)	*	*	*met(c|)	*	*
!LO:TX:a:t=allo':mod=	!	!LO:TX:t=allo:mod=	!	!	!LO:TX:a:t=allo:mod=	!	!	!LO:TX:a:t=allo:mod=	!	!	!LO:TX:a:t=allo:mod=	!	!
2.C/	Si-	2.C/	Si-	.	00r	.	.	00r	.	.	00r	.	.
4C/	-cut	4C/	-cut	.	.	.	.	.	.	.	.	.	.
=72	=72	=72	=72	=72	=72	=72	=72	=72	=72	=72	=72	=72	=72
2A\	e-	2A\	e-	.	.	.	.	.	.	.	.	.	.
2E\	-rat	2E\	-rat	.	.	.	.	.	.	.	.	.	.
=73	=73	=73	=73	=73	=73	=73	=73	=73	=73	=73	=73	=73	=73
4F\	in-	4F\	in-	.	.	.	.	.	.	.	.	.	.
4D\	-prin-	4D\	-prin-	.	.	.	.	.	.	.	.	.	.
4G\	-ci-	4G\	-ci-	.	.	.	.	.	.	.	.	.	.
4F\	-pi-	4F\	-pi-	.	.	.	.	.	.	.	.	.	.
=74	=74	=74	=74	=74	=74	=74	=74	=74	=74	=74	=74	=74	=74
4E\	-o	4E\	-o	.	.	.	.	.	.	.	.	.	.
4G\	et	4G\	et	.	.	.	.	.	.	.	.	.	.
4E\	nunc	4E\	nunc	.	.	.	.	.	.	.	.	.	.
(8D\L	et	8D\L	et	.	.	.	.	.	.	.	.	.	.
8C\J)	.	8C\J	.	.	.	.	.	.	.	.	.	.	.
=75	=75	=75	=75	=75	=75	=75	=75	=75	=75	=75	=75	=75	=75
1D	sem-	1D	Sem-	.	0r	.	.	00r	.	.	00r	.	.
!	!	!LO:LB:g=original	!	!	!	!	!	!	!	!	!	!	!
=76	=76	=76	=76	=76	=76	=76	=76	=76	=76	=76	=76	=76	=76
4C/	-per	4C/	-per	.	.	.	.	.	.	.	.	.	.
8C/L	sem-	8C/L	sem-	.	.	.	.	.	.	.	.	.	.
8D/J	.	8D/J	.	.	.	.	.	.	.	.	.	.	.
4E\	.	4E/	.	.	.	.	.	.	.	.	.	.	.
4F#X\	.	4F#X/	.	.	.	.	.	.	.	.	.	.	.
=77	=77	=77	=77	=77	=77	=77	=77	=77	=77	=77	=77	=77	=77
2G\	-per	2G\	-per	.	2.G/	Si-	.	.	.	.	.	.	.
4r	.	4r	.	.	.	.	.	.	.	.	.	.	.
4BB/	e-	4BB/	e-	.	4G/	-cut	.	.	.	.	.	.	.
!LO:LB:g=original	!	!	!	!	!	!	!	!	!	!	!	!	!
=78	=78	=78	=78	=78	=78	=78	=78	=78	=78	=78	=78	=78	=78
4C/	.	4C/	.	.	2.e\	e-	.	.	.	.	.	.	.
4BB/	.	4BB/	.	.	.	.	.	.	.	.	.	.	.
4C/	.	4C/	.	.	.	.	.	.	.	.	.	.	.
4G\	-rat	4G\	-rat	.	4B\	-rat	.	.	.	.	.	.	.
=79	=79	=79	=79	=79	=79	=79	=79	=79	=79	=79	=79	=79	=79
4A\	in	4A\	in	.	4c\	in	.	0r	.	.	00r	.	.
4F#X\	prin-	4F#X\	prin-	.	4A\	prin-	.	.	.	.	.	.	.
4B\	-ci-	4B\	-ci-	.	4d\	-ci-	.	.	.	.	.	.	.
4A\	-pi-	4A\	-pi-	.	4c\	-pi-	.	.	.	.	.	.	.
=80	=80	=80	=80	=80	=80	=80	=80	=80	=80	=80	=80	=80	=80
4G\	-o	4G\	-o	.	4B\	-o	.	.	.	.	.	.	.
4F\	et	4Fn\	et	.	4d\	et	.	.	.	.	.	.	.
4E\	n(un)c	4E\	nunc	.	4c\	.	.	.	.	.	.	.	.
4D\	et	4D\	et	.	4B\	.	.	.	.	.	.	.	.
!	!	!LO:LB:g=original	!	!	!	!	!	!	!	!	!	!	!
=81	=81	=81	=81	=81	=81	=81	=81	=81	=81	=81	=81	=81	=81
4C/	Sem-	4C/	Sem-	.	2c\	nunc	.	2.c\	Si-	.	.	.	.
4E/	.	4E/	.	.	.	.	.	.	.	.	.	.	.
4G\	.	4G\	.	.	4r	.	.	.	.	.	.	.	.
4c\	.	4c\	.	.	4G/	et	.	4c\	-cut	.	.	.	.
!	!	!	!	!	!LO:LB:g=original	!	!	!	!	!	!	!	!
=82	=82	=82	=82	=82	=82	=82	=82	=82	=82	=82	=82	=82	=82
4A\	.	4A\	.	.	2F/	sem-	.	2a\	e-	.	.	.	.
4F\	.	4F\	.	.	.	.	.	.	.	.	.	.	.
4D\	.	4D\	.	.	4G/	.	.	2e\	-rat	.	.	.	.
4C\	.	4C\	.	.	4c\	-per	.	.	.	.	.	.	.
=83	=83	=83	=83	=83	=83	=83	=83	=83	=83	=83	=83	=83	=83
4GG/	.	4GG/	.	.	4B\	et	.	4d\	in-	.	00r	.	.
4BB/	.	4BB/	.	.	4d\	.	.	4f\	-prin-	.	.	.	.
4C/	.	4C/	.	.	4c\	in	.	4e\	-ci-	.	.	.	.
4BB/	.	4BB/	.	.	4B\	.	.	4d\	-pi-	.	.	.	.
=84	=84	=84	=84	=84	=84	=84	=84	=84	=84	=84	=84	=84	=84
4E\	.	4E\	.	.	2G/	Sae-	.	4c/	-o	.	.	.	.
4G\	.	4G\	.	.	.	.	.	4e/	et	.	.	.	.
4F\	.	4F\	.	.	2G/	-cu-	.	4d/	nunc	.	.	.	.
4E\	.	4E\	.	.	.	.	.	4c/	et	.	.	.	.
!LO:LB:g=original	!	!	!	!	!	!	!	!	!	!	!	!	!
=85	=85	=85	=85	=85	=85	=85	=85	=85	=85	=85	=85	=85	=85
4D/	.	4D/	.	.	4G/	-la	.	4B/	sem-	.	.	.	.
4BB/	.	4BB/	.	.	4A/	.	.	4d/	.	.	.	.	.
!	!	!	!	!	!	!	!	!LO:LB:g=original	!	!	!	!	!
4GG/	.	4GG/	.	.	2B/	Sae-	.	[2g\	.	.	.	.	.
4BB/	.	4BB/	.	.	.	.	.	.	.	.	.	.	.
=86	=86	=86	=86	=86	=86	=86	=86	=86	=86	=86	=86	=86	=86
2D\	.	2D/	.	.	1A	.	.	2g\]	.	.	.	.	.
2DD/	.	2DD/	.	.	.	.	.	2f#X\	.	.	.	.	.
=87	=87	=87	=87	=87	=87	=87	=87	=87	=87	=87	=87	=87	=87
2GG/	-per	2GG/	-per	.	2B\	-cu-	.	4g\	.	.	2.g\	Si-	.
.	.	.	.	.	.	.	.	4d\	-per	.	.	.	.
2r	.	2r	.	.	4B\	-lo-	.	4B\	et	.	.	.	.
.	.	.	.	.	4B\	-rum	.	4d\	in	.	4g\	-cut	.
=88	=88	=88	=88	=88	=88	=88	=88	=88	=88	=88	=88	=88	=88
!	!	!LO:TX:a:t=3:mod=	!	!	!	!	!	!	!	!	!	!	!
0r	.	0r	.	.	2G/	a-	.	2c\	Sae-	.	2ee\	e-	.
.	.	.	.	.	2G/	-men	.	4c\	-cu-	.	2b\	-rat	.
.	.	.	.	.	.	.	.	4d\	-la	.	.	.	.
!	!	!	!	!	!LO:LB:g=original	!	!	!	!	!	!	!	!
=89	=89	=89	=89	=89	=89	=89	=89	=89	=89	=89	=89	=89	=89
.	.	.	.	.	4A\	a-	.	2e\	Sae-	.	4cc\	in	.
.	.	.	.	.	4A\	.	.	.	.	.	4a\	prin-	.
.	.	.	.	.	4B\	.	.	4g\	.	.	4dd\	-ci-	.
.	.	.	.	.	4A\	.	.	4f#X\	-cu-	.	4cc\	-pi-	.
=90	=90	=90	=90	=90	=90	=90	=90	=90	=90	=90	=90	=90	=90
1r	.	1r	.	.	4G\	.	.	2g\	-lo-	.	4b\	-o	.
.	.	.	.	.	4B\	.	.	.	.	.	4g\	et	.
.	.	.	.	.	4A\	.	.	2fn\	-rum	.	4a\	nunc	.
.	.	.	.	.	4G\	.	.	.	.	.	4b\	et	.
!	!	!LO:PB:g=original	!	!	!	!	!	!LO:LB:g=original	!	!	!	!	!
=91	=91	=91	=91	=91	=91	=91	=91	=91	=91	=91	=91	=91	=91
4r	.	4r	.	.	[4G/	-men	.	4e\	a-	.	4cc\	Sem-	.
!	!	!LO:N:vis=16	!	!	!	!	!	!	!	!	!	!	!
8C/L	et	8C/L	et	.	4G/]	.	.	8e\L	.	.	4cc\	-per	.
!	!	!LO:N:vis=16	!	!	!	!	!	!	!	!	!	!	!
8D/J	.	8D/J	.	.	.	.	.	8f\J	.	.	.	.	.
4E/	.	4E/	.	.	[4G/	a-	.	4g\	.	.	4cc\	et	.
4C/	in	4C/	in	.	4G/]	.	.	4e\	.	.	4b-X\	in	.
!	!	!	!	!	!	!	!	!	!	!	!LO:LB:g=original	!	!
=92	=92	=92	=92	=92	=92	=92	=92	=92	=92	=92	=92	=92	=92
4.F\	Sae-	4.F\	Sae-	.	[4A/	.	.	4a\	-men	.	4a\	Sae-	.
.	.	.	.	.	4A/]	.	.	8f#X\L	a-	.	2dd\	.	.
16D\LL	.	16D\LL	.	.	.	.	.	8g\J	.	.	.	.	.
16E\JJ	.	16E\JJ	.	.	.	.	.	.	.	.	.	.	.
4F#X\	-cu-	4F#X\	-cu-	.	2A/	-men	.	4a\	.	.	.	.	.
4D\	-la	4D\	-la	.	.	.	.	4f#\	.	.	4cc\	-cu-	.
=93	=93	=93	=93	=93	=93	=93	=93	=93	=93	=93	=93	=93	=93
4G\	Sae-	4G\	Sae-	.	4d\	a-	.	2g\	-men	.	2b\	-la	.
4D\	-cu-	4D\	-cu-	.	4d\	.	.	.	.	.	.	.	.
4BB/	-lo-	4BB/	-lo-	.	4B\	.	.	4d\	a-	.	4dd\	Sae-	.
4GG/	-rum	4GG/	-rum	.	4d\	.	.	4g\	.	.	4b\	-cu-	.
!LO:LB:g=original	!	!	!	!	!	!	!	!	!	!	!	!	!
=94	=94	=94	=94	=94	=94	=94	=94	=94	=94	=94	=94	=94	=94
4C/	a-	4C/	a-	.	4c\	.	.	2a\	.	.	4a\	-lo-	.
4AA/	.	4AA/	.	.	4A\	.	.	.	.	.	4cc\	.	.
4D/	.	4D/	.	.	4B\	.	.	2f#X\	.	.	4dd\	.	.
4DD/	.	4DD/	.	.	4A\	.	.	.	.	.	4cc\	.	.
!	!	!	!	!	!LO:LB:g=original	!	!	!	!	!	!	!	!
=95	=95	=95	=95	=95	=95	=95	=95	=95	=95	=95	=95	=95	=95
4GG/	-men	4GG/	-men	.	4G/	.	.	2g\	.	.	4b\	-rum	.
8GG/L	et	8GG/L	et	.	4d\	.	.	.	.	.	8b\L	a-	.
8AA/J	.	8AA/J	.	.	.	.	.	.	.	.	8cc\J	.	.
!	!	!LO:LB:g=original	!	!	!	!	!	!	!	!	!	!	!
4BB/	.	4BB/	.	.	2d\	-men	.	2fn\	.	.	4dd\	.	.
4GG/	in	4GG/	in	.	.	.	.	.	.	.	4b\	.	.
!	!	!	!	!	!	!	!	!LO:LB:g=original	!	!	!	!	!
=96	=96	=96	=96	=96	=96	=96	=96	=96	=96	=96	=96	=96	=96
4C/	Sae-	4C/	Sae-	.	2c\	a-	.	4e\	-men	.	2g/	-men	.
4E/	.	4E/	.	.	.	.	.	4g\	a-	.	.	.	.
4G\	-cu-	4G\	-cu-	.	2c\	-men	.	4e\	.	.	2g/	a-	.
4c\	-la	4c\	-la	.	.	.	.	4e\	-men	.	.	.	.
=97	=97	=97	=97	=97	=97	=97	=97	=97	=97	=97	=97	=97	=97
4A\	Sae-	4A\	Sae-	.	4F/	a-	.	2f\	a-	.	2a\	.	.
4F\	.	4F\	.	.	4A/	.	.	.	.	.	.	.	.
4D\	.	4D\	.	.	4F/	.	.	4d\	.	.	4b\	.	.
4C\	-cu-	4C\	-cu-	.	4G/	.	.	4e\	.	.	4cc\	.	.
!	!	!	!	!	!	!	!	!	!	!	!LO:LB:g=original	!	!
=98	=98	=98	=98	=98	=98	=98	=98	=98	=98	=98	=98	=98	=98
4BB\	-lo-	4BB/	-lo-	.	4G/	-me[n]	.	1f	.	.	4dd\	.	.
4A\	.	4A\	.	.	2c\	a-	.	.	.	.	4ff\	.	.
4G\	.	4G\	.	.	.	.	.	.	.	.	4ee\	.	.
4F\	-rum	4F\	-rum	.	4B\	.	.	.	.	.	4dd\	.	.
=99	=99	=99	=99	=99	=99	=99	=99	=99	=99	=99	=99	=99	=99
4E/	a-	4E/	a-	.	2c\	-men	.	2e\	-men	.	4cc\	.	.
4C/	.	4C/	.	.	.	.	.	.	.	.	4ee\	.	.
2c\	.	2c\	.	.	2c\	a-	.	2g\	a-	.	2ee\	-men	.
=100	=100	=100	=100	=100	=100	=100	=100	=100	=100	=100	=100	=100	=100
4A\	.	4A\	.	.	1d	.	.	1a	.	.	1ff	a-	.
8B\L	.	8B\L	.	.	.	.	.	.	.	.	.	.	.
8c\J	.	8c\J	.	.	.	.	.	.	.	.	.	.	.
!LO:LB:g=original	!	!LO:LB:g=original	!	!	!	!	!	!	!	!	!	!	!
8d\L	.	8d\L	.	.	.	.	.	.	.	.	.	.	.
8c\	.	8c\	.	.	.	.	.	.	.	.	.	.	.
8B\	.	8B\	.	.	.	.	.	.	.	.	.	.	.
8A\J	.	8A\J	.	.	.	.	.	.	.	.	.	.	.
=101	=101	=101	=101	=101	=101	=101	=101	=101	=101	=101	=101	=101	=101
4G\	.	4G\	.	.	1c	.	.	1g	.	.	2ff\	.	.
8A\L	.	8A\L	.	.	.	.	.	.	.	.	.	.	.
8B\J	.	8B\J	.	.	.	.	.	.	.	.	.	.	.
8c\L	.	8c\L	.	.	.	.	.	.	.	.	[2ee\	.	.
8B\	.	8B\	.	.	.	.	.	.	.	.	.	.	.
8A\	.	8A\	.	.	.	.	.	.	.	.	.	.	.
8G\J	.	8G\J	.	.	.	.	.	.	.	.	.	.	.
=102	=102	=102	=102	=102	=102	=102	=102	=102	=102	=102	=102	=102	=102
4F\	.	4F\	.	.	1B	.	.	1f	.	.	2ee\]	.	.
8G\L	.	8G\L	.	.	.	.	.	.	.	.	.	.	.
8A\J	.	8A\J	.	.	.	.	.	.	.	.	.	.	.
8B\L	.	8B\L	.	.	.	.	.	.	.	.	2dd\	.	.
8A\	.	8A\	.	.	.	.	.	.	.	.	.	.	.
8G\	.	8G\	.	.	.	.	.	.	.	.	.	.	.
8F\J	.	8F\J	.	.	.	.	.	.	.	.	.	.	.
!	!	!	!	!	!LO:LB:g=original	!	!	!LO:LB:g=original	!	!	!	!	!
=103	=103	=103	=103	=103	=103	=103	=103	=103	=103	=103	=103	=103	=103
4E\	.	4E\	.	.	4G/	.	.	2e\	-men	.	4cc\	.	.
4A\	.	4A\	.	.	4c\	.	.	.	.	.	4ee\	.	.
4F#X\	.	4F#X\	.	.	4d\	.	.	4a\	a-	.	4cc\	.	.
4D\	.	4D\	.	.	4c\	-men	.	4f#X\	.	.	4a\	.	.
!	!	!LO:LB:g=original	!	!	!	!	!	!	!	!	!	!	!
=104	=104	=104	=104	=104	=104	=104	=104	=104	=104	=104	=104	=104	=104
4G\	-men	4G\	-men	.	1G	a-	.	2g\	.	.	2b\	-me[n]	.
4GG/	a-	4GG/	a-	.	.	.	.	.	.	.	.	.	.
4AA/	.	4AA/	.	.	.	.	.	2fn\	.	.	4cc\	a-	.
4BB/	.	4BB/	.	.	.	.	.	.	.	.	4dd\	.	.
!LO:LB:g=original	!	!	!	!	!	!	!	!	!	!	!LO:LB:g=original	!	!
=105	=105	=105	=105	=105	=105	=105	=105	=105	=105	=105	=105	=105	=105
4C/	.	4C/	.	.	1G	-men	.	2e\	.	.	2cc\	.	.
4c\	.	4c\	.	.	.	.	.	.	.	.	.	.	.
4G\	.	4G\	.	.	.	.	.	2e\	-men	.	2cc\	-men	.
4E\	-men	4E\	-men	.	.	.	.	.	.	.	.	.	.
=106	=106	=106	=106	=106	=106	=106	=106	=106	=106	=106	=106	=106	=106
1F	a-	1F	a-	.	1F	a-	.	1d	a-	.	1a	a-	.
=107	=107	=107	=107	=107	=107	=107	=107	=107	=107	=107	=107	=107	=107
1F#X	.	1F#X	.	.	1c	-men	.	1d	.	.	1a	.	.
=108	=108	=108	=108	=108	=108	=108	=108	=108	=108	=108	=108	=108	=108
2G\	.	2G\	.	.	2G/	a-	.	2d\	.	.	2b\	-men	.
2C/	-men	2C/	-men	.	2G/	-men	.	2e\	-men	.	[2cc\	a-	.
=109	=109	=109	=109	=109	=109	=109	=109	=109	=109	=109	=109	=109	=109
2G\	a-	2G\	a-	.	1G	a-	.	1d	a-	.	2cc\]	.	.
2GG/	.	2GG/	.	.	.	.	.	.	.	.	2b\	.	.
=110	=110	=110	=110	=110	=110	=110	=110	=110	=110	=110	=110	=110	=110
1C	-men.	1C	-men	.	1G	-men	.	1e	-men	.	1cc	-men	.
==	==	==	==	==	==	==	==	==	==	==	==	==	==
*-	*-	*-	*-	*-	*-	*-	*-	*-	*-	*-	*-	*-	*-
!!!system-decoration: [(s1,s2,s3,s4)]s5
!!!RDF**kern: > = above
!!!RDF**kern: < = below
!!!RDF**kern: i = editorial accidental
!!!ENC: Andrzej Gręziak
!!!EED: Katarzyna Serwa
!!!END: 2024-04-10
!!!EEV: 2024-05-07
